public/assets/img/logo.svg

<svg width="117" height="32" viewBox="0 0 117 32" fill="none" xmlns="http://www.w3.org/2000/svg">
<g clip-path="url(#clip0_364_1703)">
<path d="M39.6201 20.2826H32.5263L31.1691 23.4694H27.5498L34.3586 8.60048H37.8511L44.6825 23.4694H40.9728L39.6201 20.2826ZM38.5071 17.668L36.0822 11.9766L33.6573 17.668H38.5071ZM57.083 12.0426L52.1065 23.487H48.5958L43.6601 12.0426H47.1753L50.4281 19.816L53.7895 12.0426H57.083ZM69.5876 18.6892H60.7023C61.0326 20.1153 62.2767 20.9957 64.0682 20.9957C64.6109 21.0145 65.1517 20.925 65.6575 20.7327C66.1632 20.5405 66.6231 20.2494 67.0089 19.8776L68.8185 21.788C67.7282 22.9984 66.104 23.6367 63.9732 23.6367C59.9015 23.6367 57.273 21.1541 57.273 17.756C57.273 14.3579 59.9558 11.8709 63.5389 11.8709C66.9862 11.8709 69.6509 14.1246 69.6509 17.7956C69.6555 18.0509 69.6102 18.4119 69.5876 18.6892ZM60.6751 16.7568H66.4569C66.3418 16.0918 65.9883 15.4881 65.459 15.0526C64.9298 14.6172 64.2591 14.3783 63.566 14.3783C62.8729 14.3783 62.2023 14.6172 61.673 15.0526C61.1438 15.4881 60.7903 16.0918 60.6751 16.7568ZM83.9425 16.9241V23.4694H80.5404V17.4347C80.5404 15.586 79.6673 14.7364 78.1607 14.7364C76.523 14.7364 75.3422 15.7136 75.3422 17.8176V23.4694H71.9356V12.025H75.1884V13.3455C75.6914 12.8432 76.2973 12.4492 76.9667 12.1891C77.6362 11.9291 78.3543 11.8087 79.0746 11.8357C81.8343 11.8709 83.9289 13.4423 83.9289 16.9241H83.9425ZM86.2769 17.756C86.2769 14.3139 88.9914 11.8709 92.8278 11.8709C95.2934 11.8709 97.2388 12.9141 98.0893 14.7805L95.4337 16.1538C95.1874 15.68 94.81 15.2827 94.3439 15.0065C93.8779 14.7304 93.3418 14.5866 92.7961 14.5912C91.0725 14.5912 89.7198 15.7576 89.7198 17.756C89.7198 19.7544 91.077 20.9208 92.7961 20.9208C93.3448 20.9292 93.8847 20.7855 94.3525 20.5065C94.8204 20.2274 95.197 19.8246 95.4382 19.345L98.0803 20.7492C97.2252 22.5759 95.2799 23.6367 92.7961 23.6367C88.9959 23.6367 86.2634 21.1937 86.2634 17.756H86.2769ZM99.6366 8.60048C99.6366 7.56168 100.487 6.75177 101.754 6.75177C103.021 6.75177 103.871 7.51767 103.871 8.53886C103.871 9.63928 103.021 10.4492 101.754 10.4492C100.487 10.4492 99.623 9.63928 99.623 8.60048H99.6366ZM100.053 12.0426H103.459V23.487H100.035L100.053 12.0426ZM117 16.9461V23.4694H113.811V22.0433C113.182 23.0865 111.956 23.6367 110.232 23.6367C107.481 23.6367 105.844 22.1489 105.844 20.1769C105.844 18.205 107.309 16.7568 110.888 16.7568H113.602C113.602 15.3351 112.729 14.5032 110.888 14.5032C109.671 14.4936 108.484 14.8673 107.504 15.5684L106.282 13.2531C107.791 12.3125 109.554 11.8313 111.345 11.8709C114.923 11.8709 117 13.4864 117 16.9461ZM113.607 19.8556V18.6892H111.272C109.68 18.6892 109.178 19.2614 109.178 20.0097C109.178 20.758 109.897 21.3874 111.096 21.3874C111.628 21.425 112.158 21.2967 112.609 21.0213C113.061 20.7458 113.41 20.3375 113.607 19.8556Z" fill="#141029" fill-opacity="0.8"/>
<path d="M8.91924 1.06607L8.91505 1.06772C7.59224 1.58771 6.95315 3.05258 7.4876 4.3396L14.8479 22.0642C15.3824 23.3512 16.888 23.973 18.2108 23.453L18.215 23.4514C19.5378 22.9314 20.1769 21.4665 19.6424 20.1795L12.2821 2.4549C11.7476 1.16788 10.242 0.546084 8.91924 1.06607Z" fill="url(#paint0_linear_364_1703)"/>
<path d="M10.8529 0.930121L10.8487 0.928495C9.52293 0.415701 8.02092 1.04567 7.49387 2.33558L0.235424 20.0999C-0.291627 21.3898 0.355861 22.8511 1.68163 23.3639L1.68583 23.3656C3.0116 23.8784 4.51361 23.2484 5.04066 21.9585L12.2991 4.19419C12.8262 2.90429 12.1787 1.44291 10.8529 0.930121Z" fill="#FF00AA"/>
<path d="M23.1169 6.62983L23.1127 6.6282C21.7869 6.11541 20.2849 6.74538 19.7578 8.03528L14.7907 20.1917C14.2637 21.4816 14.9112 22.943 16.237 23.4558L16.2412 23.4574C17.5669 23.9702 19.0689 23.3403 19.596 22.0504L24.5631 9.8939C25.0901 8.604 24.4426 7.14262 23.1169 6.62983Z" fill="#5D2DE1"/>
</g>
<defs>
<linearGradient id="paint0_linear_364_1703" x1="13.7089" y1="23.5974" x2="13.7591" y2="0.917762" gradientUnits="userSpaceOnUse">
<stop offset="0.15" stop-color="#5D2DE1"/>
<stop offset="0.85" stop-color="#FF00AA"/>
</linearGradient>
<clipPath id="clip0_364_1703">
<rect width="117" height="32" fill="white"/>
</clipPath>
</defs>
</svg>

<svg width="117" height="32" fill="none" xmlns="http://www.w3.org/2000/svg"><g clip-path="url(#a)"><path d="M39.62 20.283h-7.094l-1.357 3.186h-3.62L34.36 8.6h3.492l6.831 14.87h-3.71l-1.352-3.187Zm-1.113-2.615-2.425-5.691-2.425 5.691h4.85Zm18.576-5.625-4.977 11.444h-3.51L43.66 12.043h3.515l3.253 7.773 3.361-7.773h3.294Zm12.505 6.646h-8.886c.33 1.426 1.575 2.307 3.366 2.307a4.077 4.077 0 0 0 1.59-.263 3.99 3.99 0 0 0 1.35-.855l1.81 1.91c-1.09 1.21-2.714 1.849-4.845 1.849-4.072 0-6.7-2.483-6.7-5.881s2.683-5.885 6.266-5.885c3.447 0 6.112 2.254 6.112 5.925.005.255-.04.616-.063.893Zm-8.913-1.932h5.782a2.835 2.835 0 0 0-.998-1.704 2.981 2.981 0 0 0-1.893-.675c-.693 0-1.364.24-1.893.675a2.836 2.836 0 0 0-.998 1.704Zm23.267.167v6.545H80.54v-6.034c0-1.849-.873-2.699-2.38-2.699-1.637 0-2.818.978-2.818 3.082v5.651h-3.406V12.025h3.252v1.32a5.16 5.16 0 0 1 1.779-1.156 5.28 5.28 0 0 1 2.108-.353c2.76.035 4.854 1.606 4.854 5.088h.013Zm2.335.832c0-3.442 2.714-5.885 6.55-5.885 2.466 0 4.412 1.043 5.262 2.91l-2.655 1.373a2.88 2.88 0 0 0-1.09-1.147 2.989 2.989 0 0 0-1.548-.416c-1.724 0-3.076 1.167-3.076 3.165s1.357 3.165 3.076 3.165a2.952 2.952 0 0 0 1.556-.415c.468-.279.845-.681 1.086-1.161l2.642 1.404c-.855 1.827-2.8 2.888-5.284 2.888-3.8 0-6.533-2.443-6.533-5.881h.014ZM99.637 8.6c0-1.038.85-1.848 2.117-1.848s2.117.766 2.117 1.787c0 1.1-.85 1.91-2.117 1.91s-2.131-.81-2.131-1.849h.014Zm.416 3.443h3.406v11.444h-3.424l.018-11.444ZM117 16.946v6.523h-3.189v-1.426c-.629 1.044-1.855 1.594-3.579 1.594-2.751 0-4.388-1.488-4.388-3.46s1.465-3.42 5.044-3.42h2.714c0-1.422-.873-2.254-2.714-2.254a5.741 5.741 0 0 0-3.384 1.065l-1.222-2.315a9.194 9.194 0 0 1 5.063-1.382c3.578 0 5.655 1.615 5.655 5.075Zm-3.393 2.91v-1.167h-2.335c-1.592 0-2.094.572-2.094 1.32 0 .749.719 1.378 1.918 1.378a2.56 2.56 0 0 0 1.513-.366c.452-.275.801-.684.998-1.165Z" fill="#141029" fill-opacity=".8"/><path d="m8.92 1.066-.005.002c-1.323.52-1.962 1.985-1.427 3.272l7.36 17.724c.534 1.287 2.04 1.909 3.363 1.389l.004-.002c1.323-.52 1.962-1.985 1.427-3.271l-7.36-17.725c-.534-1.287-2.04-1.909-3.363-1.389Z" fill="url(#b)"/><path d="m10.853.93-.004-.002C9.523.416 8.02 1.046 7.494 2.336L.235 20.1c-.527 1.29.12 2.751 1.447 3.264l.004.002c1.326.512 2.828-.118 3.355-1.407l7.258-17.765c.527-1.29-.12-2.751-1.446-3.264Z" fill="#F0A"/><path d="m23.117 6.63-.004-.002c-1.326-.513-2.828.117-3.355 1.407L14.79 20.192c-.527 1.29.12 2.751 1.446 3.264l.004.001c1.326.513 2.828-.117 3.355-1.407l4.967-12.156c.527-1.29-.12-2.751-1.446-3.264Z" fill="#5D2DE1"/></g><defs><linearGradient id="b" x1="13.709" y1="23.597" x2="13.759" y2=".918" gradientUnits="userSpaceOnUse"><stop offset=".15" stop-color="#5D2DE1"/><stop offset=".85" stop-color="#F0A"/></linearGradient><clipPath id="a"><path fill="#fff" d="M0 0h117v32H0z"/></clipPath></defs></svg>
